X:1
T:George's Square
T:George's Square
T:William Marshall
C:William Marshall
%%score { 1 2 }
L:1/8
M:4/4
K:F
V:1 treble 
V:2 bass 
V:1
 (f | cF)cA cFfd | cFcA dGG(f | c)FcA fgag | dfcA G3 :: (e | f)gag fFF(A | f)gaf bgga | fgaf gefc | %9
 dfcA G3 :| %10
V:2
 z | f2 f2 f2 f2 | f2 f2 g2 g2 | f2 f2 f2 f2 | d2 D2 g3 :: z | f2 f2 f2 f2 | f2 f2 g2 g2 | %8
 f2 f2 c2 f2 | d2 D2 G3 :| %10

